X:1530
T:Give Us Another
R:reel
N:"collected from McFadden"
B:"O'Neill's Dance Music of Ireland, 1530"
T: ta.bair .duinn ceann eile
Z:transcribed by John B. Walsh, walsh@math.ubc.ca 8/23/96
M:C|
L:1/8
K:D
D2 ((3FED) FAAB|defd BdAd|((3.B.B.B) T(BA) FAdB|1 AGFD EGFE:|2 AGFD ((3EFE) D2||
defg afdf| afdf eB {c}((3BAB)|defg afdf|abaf e2 d2|
defg afbf|afdf edBA|((3.B.B.B) T(BA) FAdB|AGFD EGFE||


